2 Export/Icons/Brands/VK.svg

<svg xmlns="http://www.w3.org/2000/svg" xmlns:xlink="http://www.w3.org/1999/xlink" width="24" height="24" viewBox="0 0 24 24">
  <defs>
    <path id="vk-a" d="M11.7751753,17.2045643 L12.8529314,17.2045643 C12.8529314,17.2045643 13.1776833,17.1693141 13.3434342,16.9915631 C13.5009351,16.8258121 13.5009351,16.5190604 13.5009351,16.5190604 C13.5009351,16.5190604 13.477685,15.0738022 14.1526888,14.861551 C14.8179426,14.6507998 15.6616974,16.2565589 16.5609525,16.8738124 C17.2479564,17.3455651 17.7647094,17.2443145 17.7647094,17.2443145 L20.172973,17.2113143 C20.172973,17.2113143 21.4344802,17.1325639 20.8382268,16.1418082 C20.7924766,16.0630578 20.4999749,15.4105541 19.0599667,14.0717965 C17.5509581,12.6760385 17.7534593,12.9010398 19.5669696,10.4815261 C20.6687259,9.0077677 21.1194784,8.10701258 20.9732276,7.72451041 C20.8487269,7.36450836 20.0282222,7.45375887 20.0282222,7.45375887 L17.3267069,7.477009 C17.3267069,7.477009 17.1242057,7.45375887 16.9779549,7.54450938 C16.8317041,7.63375989 16.7424535,7.83776105 16.7424535,7.83776105 C16.7424535,7.83776105 16.3134511,8.98451757 15.7404479,9.95277307 C14.5231909,11.9995347 14.0394382,12.1120353 13.8481871,11.9770346 C13.3951845,11.6837829 13.5114352,10.7920278 13.5114352,10.1530242 C13.5114352,8.17226295 13.8144369,7.34050823 12.9256819,7.12675701 C12.6331802,7.05850662 12.414929,7.01425637 11.6619247,7.0022563 C10.6944192,6.99175624 9.87841455,7.00975635 9.41566192,7.23550763 C9.11191019,7.38775849 8.87565885,7.72451041 9.01140962,7.74176051 C9.19141065,7.76426063 9.59566294,7.85126113 9.80941416,8.14451279 C10.0906658,8.52401495 10.0786657,9.37151977 10.0786657,9.37151977 C10.0786657,9.37151977 10.2369166,11.708533 9.70816358,11.9987847 C9.33691147,12.1952858 8.84190866,11.7887835 7.76190252,9.93177295 C7.21064939,8.98676758 6.79364702,7.92926157 6.79364702,7.92926157 C6.79364702,7.92926157 6.71489657,7.73726048 6.56939575,7.62475984 C6.39914478,7.50100914 6.15164337,7.45600888 6.15164337,7.45600888 L3.57537874,7.47850901 C3.57537874,7.47850901 3.19287656,7.49050908 3.0586258,7.65851003 C2.93412509,7.80476086 3.04662573,8.11976265 3.04662573,8.11976265 C3.04662573,8.11976265 5.06113718,12.8350394 7.34565016,15.2095529 C9.43816205,17.3860653 11.8126755,17.2458145 11.8126755,17.2458145 L11.7751753,17.2045643 Z"/>
  </defs>
  <g fill="none" fill-rule="evenodd">
    <polygon points="0 0 24 0 24 24 0 24"/>
    <mask id="vk-b" fill="#fff">
      <use xlink:href="#vk-a"/>
    </mask>
    <use fill="#000" xlink:href="#vk-a"/>
    <g fill="#000" mask="url(#vk-b)">
      <rect width="24" height="24"/>
    </g>
  </g>
</svg>

<svg xmlns="http://www.w3.org/2000/svg" xmlns:xlink="http://www.w3.org/1999/xlink" width="24" height="24" viewBox="0 0 24 24">
  <defs>
    <path id="vk-a" d="M11.775 17.205h1.078s.325-.036.49-.213c.158-.166.158-.473.158-.473s-.023-1.445.652-1.657c.665-.211 1.509 1.395 2.408 2.012.687.472 1.204.37 1.204.37l2.408-.033s1.261-.078.665-1.07c-.046-.078-.338-.73-1.778-2.07-1.509-1.395-1.307-1.17.507-3.59 1.102-1.473 1.552-2.374 1.406-2.756-.124-.36-.945-.271-.945-.271l-2.701.023s-.203-.023-.349.068c-.146.089-.236.293-.236.293s-.429 1.147-1.002 2.115c-1.217 2.047-1.7 2.159-1.892 2.024-.453-.293-.337-1.185-.337-1.824 0-1.98.303-2.812-.585-3.026-.293-.068-.511-.113-1.264-.125-.968-.01-1.784.008-2.246.234-.304.152-.54.489-.405.506.18.022.585.11.798.403.282.379.27 1.227.27 1.227s.158 2.337-.37 2.627c-.372.196-.867-.21-1.947-2.067-.551-.945-.968-2.003-.968-2.003s-.08-.192-.225-.304c-.17-.124-.417-.169-.417-.169l-2.577.023s-.382.012-.516.18c-.125.146-.012.46-.012.46s2.014 4.716 4.299 7.09c2.092 2.177 4.467 2.037 4.467 2.037l-.038-.041z"/>
  </defs>
  <g fill="none" fill-rule="evenodd">
    <polygon points="0 0 24 0 24 24 0 24"/>
    <mask id="vk-b" fill="#fff">
      <use xlink:href="#vk-a"/>
    </mask>
    <use fill="#000" xlink:href="#vk-a"/>
    <g fill="#000" mask="url(#vk-b)">
      <rect width="24" height="24"/>
    </g>
  </g>
</svg>
